**kern	**kern
*part1	*part1
*staff2	*staff1
*I"Piano	*
*clefF4	*clefG2
*k[b-e-]	*k[b-e-]
=1	=1
8CL 8E-	4.a
8A	.
8C 8E-	.
8AJ	8a
8C#XL 8En	8ccL
8G	8b-
8C# 8E	8a
8GJ	8gJ
=	=
8DL 8A	2f#X
8c	.
8D 8A	.
8cJ	.
8DL 8A	4r
8c	.
8D 8A	4d
8cJ	.
=	=
8BB-L	4.d 4.g
8B-	.
8BB-	.
8B-J	8d 8g
8BBnL	4.d 4.g
8Bni	.
8BB	.
8BJ	8g 8gg
=	=
8CL	4.g 4.gg
8c	.
8C	.
8cJ	8cc 8ee-
8CL	4.cc 4.ee-
8c	.
8C	.
8cJ	8e- 8cc
=	=
2D	8e-L 8cc
.	8d 8b-
.	8d 8b-
.	8cJ 8a
2DD	8cL 8a
.	8B- 8g
.	8B- 8g
.	8AJ 8f#X
=	=
2GG	2B- 2d 2g
4r	4r
=	=
*k[f#]	*k[f#]
4r	4d
=	=
*-	*-
!!!system-decoration: {(s1,s2)}
!!!RDF**kern: i = editorial accidental
